X: 439
T: Romska Gaida
B: incoming
M:15/16
L:1/16
Q: 1/4=88
K:Cm
V:1 
%%MIDI program 67
|:G6F2 FGGF-F3|E2C2C2C2 C2D2E3|\
 E2C2C2C2 C2D2E3|E2F2D2E2 C2C2-C3:|
|:B,2C2E2E2 E4-E3|F2G2F2E2- E7  |\
  F2G2E2E2 E7    |D2E2D2C2- C7 :|\
|:E2D2C2C2 C2C2F3|E2E2D2C2 D2C2C3:|
V:2 
|: [D,,F,,]4 C,,4 F,,2F,,2 [D,,F,,]3 |\
[D,,F,,]4 [C,,^D,]4 F,,2F,,2 [D,,F,,]3 | 
[D,,F,,]4 C,,4 F,,2F,,2 [D,,F,,]3 |
[D,,F,,]4 C,,4 F,,2F,,2 [D,,F,,]3 ::
[A,,D,,]4 [A,,D,,]4 z2F,,2 F,,3 |
[A,,D,,]4 [A,,D,,]4 z2F,,2 F,,3 |
[A,,D,,]4 [A,,D,,]4 z2F,,2 F,,3 |
[A,,D,,]4 [A,,D,,]4 z2F,,2 F,,3 :: 
[A,,D,,]2F,,2 [A,,D,,]2F,,2 z2[F,,D,,]2 [F,,D,,]3 |
[A,,D,,]2F,,2 [A,,D,,]2F,,2 z2[F,,D,,]2 [F,,D,,]3:|
% abcbook-tune_id 63cb08438bb77d660bcde735
% abcbook-tune_composer_id 
% abcbook-boost 0
% abcbook-difficulty 0
% abcbook-tags balkan dances
% abcbook-tablature 
% abcbook-transpose 
% abcbook-tuning 
% abcbook-lastupdated 1674250307968
% abcbook-soundfonts 
% abcbook-repeats 1


